X: 1
T: Tr\"ondelag pols
T: Pols fran Lom
C: trad.
P: Swing it!
R: pols
Z: 2020 John Chambers <jc:trillian.mit.edu>
S: https://www.facebook.com/groups/Fiddletuneoftheday/
S: https://www.facebook.com/groups/Fiddletuneoftheday/photos/
M: 3/4
L: 1/8
K: Dm	% and Gm
|: "Dm"a2 ag (3(ef)g | f2 fe df | "A"ef e^c Ac |1,3 "Dm"d^c de fg :2 "Dm"d2 d4 :|
|: "Gm"B2 BA GB | "D7"AB A^F D2 | DE ^FG AF |1,3 G>^F GA Bc :|1 "Gm"G2 G4 :|
